images/traning-6.svg

<svg width="31" height="50" viewBox="0 0 31 50" fill="none" xmlns="http://www.w3.org/2000/svg">
<path d="M29.2636 14.106C28.159 13.0056 25.2135 10.0713 24.2931 9.15436C24.4158 9.15436 24.4771 9.09322 24.5999 9.03209C25.2135 8.8487 25.8885 8.66531 26.6863 7.93174C27.3613 7.2593 27.7295 6.4646 27.7295 5.60876C27.7295 4.75293 27.3613 3.8971 26.6863 3.28579C26.0113 2.61335 25.1522 2.24656 24.2931 2.24656C23.4339 2.24656 22.6362 2.61335 21.9612 3.28579C21.2248 4.01936 21.0407 4.75293 20.8566 5.36424C20.7952 5.4865 20.7952 5.60876 20.7339 5.66989C19.752 4.75293 16.8065 1.75751 15.8247 0.779419C14.7815 -0.259806 14.2292 -0.259806 13.186 0.779419L8.70634 5.18085C7.60177 6.2812 7.90859 7.0759 8.33815 7.50382C8.82907 7.99287 9.44272 8.17626 9.93364 8.29852C10.4246 8.42078 10.7927 8.48192 11.1609 8.8487C11.836 9.52114 11.836 10.377 11.1609 11.0494C10.4859 11.7219 9.62681 11.7219 8.9518 11.0494C8.58361 10.6826 8.46088 10.3158 8.33815 9.8268C8.21542 9.33775 8.03132 8.78757 7.5404 8.29852C6.86539 7.62608 6.12901 7.74834 5.20853 8.60418L0.728884 13.1279C-0.252956 14.106 -0.252957 14.7173 0.790249 15.7565C2.38574 17.3459 4.90171 19.8523 5.76082 20.7081C5.69945 20.7081 5.57672 20.7692 5.45399 20.7692C4.90171 20.8915 4.10396 21.0749 3.30621 21.8696C2.6312 22.542 2.26301 23.3979 2.26301 24.2537C2.26301 25.1095 2.6312 25.9654 3.30621 26.6378C3.98123 27.3102 4.84034 27.677 5.69945 27.677C6.55856 27.677 7.35631 27.3102 8.09269 26.6378C8.82907 25.9042 9.07453 25.1707 9.19726 24.6205C9.25862 24.4982 9.25862 24.376 9.31999 24.3148C10.2405 25.2318 13.2473 28.2272 14.2906 29.2664C14.8428 29.8166 15.211 30 15.5792 30C15.9474 30 16.3156 29.7555 16.8679 29.2664L21.3475 24.8039C21.5316 24.6205 21.8385 24.3148 21.9612 23.948C22.2066 23.459 22.0839 22.9699 21.6544 22.542C21.1634 22.053 20.5498 21.8696 20.1202 21.7473C19.6907 21.6251 19.3225 21.5028 18.8929 21.136C18.5247 20.7692 18.3406 20.4024 18.3406 20.0357C18.3406 19.6689 18.5247 19.3021 18.8929 18.9353C19.1998 18.6296 19.6293 18.4463 19.9975 18.4463C20.3657 18.4463 20.7952 18.6296 21.1021 18.9353C21.4703 19.3021 21.5316 19.6689 21.6544 20.1579C21.7771 20.4636 21.8998 21.0749 22.3907 21.5639C23.0044 22.1752 23.8021 22.053 24.7226 21.1971L29.2023 16.7346C29.6932 16.2455 30 15.8788 30 15.4508C30 14.9618 29.6932 14.5339 29.2636 14.106Z" fill="#FF8901"/>
<path d="M28.67 32.74L19.59 28.22C19.25 28.08 18.89 28 18.5 28H17V16C17 14.34 15.66 13 14 13C12.34 13 11 14.34 11 16V37.47L4.15001 36.04C4.00001 36.01 3.84001 35.99 3.68001 35.99C3.06001 35.99 2.50001 36.25 2.09001 36.65L0.51001 38.25L10.39 48.13C10.94 48.67 11.69 49.01 12.51 49.01H26.1C27.61 49.01 28.76 47.9 28.97 46.45L30.48 35.91C30.5 35.77 30.51 35.64 30.51 35.5C30.5 34.26 29.74 33.19 28.67 32.74Z" fill="#1D5C73"/>
</svg>

<svg width="31" height="50" fill="none" xmlns="http://www.w3.org/2000/svg"><path d="M29.264 14.106l-4.97-4.952c.122 0 .183-.06.306-.122.613-.183 1.288-.367 2.086-1.1.675-.673 1.044-1.467 1.044-2.323 0-.856-.369-1.712-1.044-2.323-.675-.673-1.534-1.04-2.393-1.04-.86 0-1.657.367-2.332 1.04-.736.733-.92 1.467-1.104 2.078-.062.123-.062.245-.123.306-.982-.917-3.928-3.912-4.91-4.89-1.043-1.04-1.595-1.04-2.638 0l-4.48 4.4c-1.104 1.101-.797 1.896-.368 2.324.491.489 1.105.672 1.596.795.49.122.859.183 1.227.55.675.672.675 1.528 0 2.2-.675.673-1.534.673-2.21 0-.367-.366-.49-.733-.613-1.222-.123-.49-.307-1.04-.798-1.528-.675-.673-1.411-.55-2.331.305l-4.48 4.524c-.982.978-.982 1.59.061 2.629l4.97 4.951c-.06 0-.183.061-.306.061-.552.123-1.35.306-2.148 1.1-.675.673-1.043 1.529-1.043 2.385 0 .855.368 1.711 1.043 2.384.675.672 1.534 1.039 2.393 1.039.86 0 1.657-.367 2.394-1.04a3.918 3.918 0 001.104-2.017c.062-.122.062-.244.123-.305l4.97 4.951c.553.55.921.734 1.29.734.367 0 .736-.244 1.288-.734l4.48-4.462c.184-.183.49-.49.613-.856.246-.489.123-.978-.307-1.406-.49-.489-1.104-.672-1.534-.795-.43-.122-.797-.244-1.227-.611-.368-.367-.552-.734-.552-1.1 0-.367.184-.734.552-1.1.307-.306.736-.49 1.104-.49.369 0 .798.184 1.105.49.368.366.43.733.552 1.222.123.306.246.917.737 1.406.613.611 1.411.489 2.332-.367l4.48-4.462c.49-.49.797-.856.797-1.284 0-.49-.307-.917-.736-1.345z" fill="#FF8901"/><path d="M28.67 32.74l-9.08-4.52c-.34-.14-.7-.22-1.09-.22H17V16c0-1.66-1.34-3-3-3s-3 1.34-3 3v21.47l-6.85-1.43c-.15-.03-.31-.05-.47-.05-.62 0-1.18.26-1.59.66l-1.58 1.6 9.88 9.88c.55.54 1.3.88 2.12.88H26.1c1.51 0 2.66-1.11 2.87-2.56l1.51-10.54c.02-.14.03-.27.03-.41a3.025 3.025 0 00-1.84-2.76z" fill="#1D5C73"/></svg>
